X:315
T: James Corrigan's
S: Darley & McCall Collection (#46, gan ainm)
Z: B.Black
L: 1/8
M: 4/4
R: hornpipe
K: G
BA|GAGA BGBd|gfga bgdB|ABAB cAgf|edcB A2 BA|
GAGA BGBd|gfga bgdB|cedc BAGB|A2 G2 G2 :|
Bc|dedc BGBd|ecAG FGAB|cdfa gagf|edcB A2 BA|
GAGA BGBd|gfga bgdB|cedc BAGB|A2 G2 G2 :|
